X: 27325
T: Mist Covered Mountain, The
R: jig
M: 6/8
K: Adorian
G|:E2A ABd|e2 B AGE|~G3 GAB|dBA GED|
E2A AB/c/d|e2A AGE|efg edB|1 BAG A2G:|2 BAG A2b||
age a2b|age edB|AGE G2A|~B3 AGE|
age a2b|age edB|AGE G2A|BAG ABd|
age a2b|age edB|AGE G2A|BAB GED|
~E3 G2A|BAG AB/c/d|efg edB|BAG A2G||

